src/lib/packages/icons/src/assets/filled/mask-snorkel.svg

<svg xmlns="http://www.w3.org/2000/svg" width="24" height="24" fill="none"><path fill="currentColor" d="M7.17 14H4c-.55 0-1-.45-1-1V9c0-2 1-3 3-3h9c2 0 3 1 3 3v4c0 .55-.45 1-1 1h-3.17c-.52 0-1-.27-1.27-.71l-1.21-1.94a1 1 0 0 0-1.7 0l-1.21 1.94c-.27.44-.75.71-1.27.71ZM21 2.25c-.41 0-.75.34-.75.75v15c0 1.58-.67 2.25-2.25 2.25h-4.5c-1.58 0-2.25-.67-2.25-2.25v-.25h1.25c.41 0 .75-.34.75-.75s-.34-.75-.75-.75h-4c-.41 0-.75.34-.75.75s.34.75.75.75h1.25V18c0 2.42 1.33 3.75 3.75 3.75H18c2.42 0 3.75-1.33 3.75-3.75V3c0-.41-.34-.75-.75-.75Z"/></svg>

<svg width="24" height="24" viewBox="0 0 24 24" fill="none" xmlns="http://www.w3.org/2000/svg">
<path d="M7.17001 14H4C3.45 14 3 13.55 3 13V9C3 7 4 6 6 6H15C17 6 18 7 18 9V13C18 13.55 17.55 14 17 14H13.83C13.31 14 12.83 13.73 12.56 13.29L11.35 11.35C10.96 10.72 10.05 10.72 9.64999 11.35L8.44 13.29C8.17 13.73 7.69001 14 7.17001 14ZM21 2.25C20.59 2.25 20.25 2.59 20.25 3V18C20.25 19.58 19.58 20.25 18 20.25H13.5C11.92 20.25 11.25 19.58 11.25 18V17.75H12.5C12.91 17.75 13.25 17.41 13.25 17C13.25 16.59 12.91 16.25 12.5 16.25H8.5C8.09 16.25 7.75 16.59 7.75 17C7.75 17.41 8.09 17.75 8.5 17.75H9.75V18C9.75 20.42 11.08 21.75 13.5 21.75H18C20.42 21.75 21.75 20.42 21.75 18V3C21.75 2.59 21.41 2.25 21 2.25Z" fill="currentColor"/>
</svg>
